X:1
T:
M:3/4
Q:1/4=100
K:C
E5G|A4B2|AGE3D|CEG2A2|E2D4|-D4cB|A3BAG|E3/4D5/4E2G2|
A6|-A4EG|A4BA|AGE3D|CEG2A2|E2D4|-D4CD|E2A2G2|
E3DCE|D3/4E/4DC2G,2|A,6|-A,6|